X: 21566
T: Kilfenora, The
R: jig
M: 6/8
K: Dmajor
|:F2A A2A|ABA FED|G2B ~B2A|~B2A Bcd|
F2A A2A|ABA FED|dcB AGF|1 GFE D2E:|2 GFE D3||
|:d2A F2A|DFA d3|dcB AGF|EFG ABc|
d2A F2A|DFA d2e|dcB AGF|1 GFE D3:|2 GFE D2E||

